X: 4086
T: LAGER BEER
R: Strathspey.
%R: strathspey
B: James Kerr "Merry Melodies" v.4 p.12 #86
Z: 2016 John Chambers <jc:trillian.mit.edu>
M: C
L: 1/8
K: Bm
|:\
vB<B d>e f2(f>^g) | a>fe>d c<A A>c |\
B<B d>e f2(f<b) | f>ed>c B2-Bf ::\
b<b f>d B>df>^g | a<a e>c A>ce>a |\
b<b f>d B>df>b | f>ed>c B2-Bf :|

%%sep 1 1 500
%%sep 1 1 500

